X:1
T:La Habra, 10.7.10.7 D
T:La Habra, 10.7.10.7 D
T:A. F. Myers, 1899
T:Public Domain Courtesy of the Cyber Hymnal™
C:A. F. Myers, 1899
Z:Public Domain
Z:Courtesy of the Cyber Hymnal™
%%score ( 1 2 ) ( 3 4 )
L:1/8
Q:1/4=90
M:6/8
K:A
V:1 treble 
V:2 treble 
V:3 bass 
V:4 bass 
V:1
 [CE] | [CE][^B,^D][CE] [Ec]2 [CE] | [CE][^B,^D][CE] [E=d]2 [Gd] | [Ac]2 [EA] [EA][EG][EA] | %4
 ([GB-]3 [EB]2) [DE] | [CE][^B,^D][CE] [Ec]2 [CE] | [CE][^B,^D][CE] [E=d]2 [Gd] | %7
 [Ac]2 [EA] [EA][EA][DG] | [CA]3- [CA]2 [Ae] | [Ge][GB][GB] [GB]2 [Gd] | [Gd][Ac][Ac] [Ac]2 [Ac] | %11
 [Ac][EB][EB] [EB]2 A | [GB]3- [GB]2 [DE] | [CE][^B,^D][CE] [Ec]2 [CE] | %14
 [CE][^B,^D][CE] [E=d]2 [Gd] | [Ac][EA][EA] [EA]2 [DG] | [CA]3- [CA]2 |] %17
V:2
 x | x6 | x6 | x6 | x6 | x6 | x6 | x6 | x6 | x6 | x6 | x5 A | x6 | x6 | x6 | x6 | x5 |] %17
V:3
 [A,,A,] | [A,,A,][A,,A,][A,,A,] [A,,A,]2 [A,,A,] | [A,,A,][A,,A,][A,,A,] [E,G,]2 [E,B,] | %3
 A,2 [A,C] [A,C][B,D][A,C] | ([E,-E]3 [E,G,]2) [E,G,] | [A,,A,][A,,A,][A,,A,] [A,,A,]2 [A,,A,] | %6
 [A,,A,][A,,A,][A,,A,] [E,G,]2 [E,B,] | A,2 [A,C] [E,C][E,C][E,B,] | [A,,A,]3- [A,,A,]2 [A,C] | %9
 [E,B,][E,E][E,E] [E,E]2 [E,E] | [A,E][A,E][A,E] [A,E]2 [A,E] | [A,E][G,E][G,E] [G,E]2 [F,^D] | %12
 [E,E]3- [E,E]2 [E,G,] | [A,,A,][A,,A,][A,,A,] [A,,A,]2 [A,,A,] | %14
 [A,,A,][A,,A,][A,,A,] [E,G,]2 [E,B,] | A,[A,C][A,C] [E,C]2 [E,B,] | [A,,A,]3- [A,,A,]2 |] %17
V:4
 x | x6 | x6 | A,2 x4 | x6 | x6 | x6 | A,2 x4 | x6 | x6 | x6 | x6 | x6 | x6 | x6 | A, x5 | x5 |] %17

